X: 17
T: Felicity Rag
C: Scott Joplin
%%abc-version 2.0
%%abcx-abcm2ps-target-version 5.9.1 (29 Sep 2008)
%%abc-creator hum2abc beta
%%abcx-conversion-date 2021/07/20 09:00:57
%%abc-copyright 2021 Craig Stuart Sapp
%%abc-edited-by Craig Stuart Sapp
%%abc-edited-by Nate Sloan
%%abcx-initial-encoding-date 2012/05/07
%%humdrum-veritas 2111214807
%%humdrum-veritas-data 2572230040
%%removed 0's from note length
%%linebreak <none>
%%barnumbers 0
L: 1/8
M: 2/4
N: Derived from felicity.krn
Q: "Tempo di Marcia" 1/4=100
%%staves {1 2}
V: 1 clef=treble
V: 2 clef=bass
K: C
[V:1] G,>^F, G,/^G,/A, | 
[V:2] G,,>^F,, G,,/^G,,/A,, | 
[V:1] A,>^G, A,/^A,/B, | 
[V:2] A,,>^G,, A,,/^A,,/B,, | 
[V:1] D^C/D/ ^D/E/F/^F/ | 
[V:2] D,^C,/D,/ ^D,/E,/F,/^F,/ | 
[V:1] G z !accent![gdBG] z ]|:  
[V:2] G, z !accent![G,,G,,,] z ]|:  
[V:1] [e/c/G/][^d/c/^F/][e/c/G/][a/e/c/A/]- [a/e/c/A/]g/e/c/ | 
[V:2] [C,C,,][ECG,] [E,E,,][ECG,] | 
[V:1] de/c/- c/c/B/_B/ & [BF]>[GE]- [GE] z | 
[V:2] [G,,G,,,][FB,G,] [C,C,,][ECG,] | 
[V:1] A/^G/A/c/ e/d/c/A/ & z2FF | 
[V:2] [F,F,,][FCA,] [A,A,,][_A,_A,,] | 
[V:1] [cE][A/E/][G/E/]- [G/E/]g/e/c/ | 
[V:2] [G,G,,][CG,] [C,C,,][ECG,] | 
[V:1] A/^G/A/c/ e/d/c/A/ & z2FF | 
[V:2] [F,F,,][FCA,] [A,A,,][_A,_A,,] | 
[V:1] [e/G/E/][^d/^F/^D/][e/G/E/][a/e/c/A/]- [a/e/c/A/]e/c/A/ | 
[V:2] [G,G,,][CG,] [E,E,,][_E,_E,,] | 
[V:1] A/^A/B/[=a/f/B/]- [afB][gfB] | 
[V:2] [D,D,,][FB,G,] [G,,G,,,][FB,G,] | 
[V:1] [e'bf][d'bf] [d'ge][c'ge] | 
[V:2] [G,,G,,,][FB,G,] [C,C,,][ECG,] | 
[V:1] [e/c/G/][^d/c/^F/][e/c/G/][a/e/c/A/]- [a/e/c/A/]g/e/c/ | 
[V:2] [C,C,,][ECG,] [E,E,,][ECG,] | 
[V:1] de/c/- c/c/B/_B/ & [BF]>[GE]- [GE] z | 
[V:2] [G,,G,,,][FB,G,] [C,C,,][ECG,] | 
[V:1] A/^G/A/c/ e/d/c/A/ & z2FF | 
[V:2] [F,F,,][FCA,] [A,A,,][_A,_A,,] | 
[V:1] [cE][A/E/][G/E/]- [G/E/]g/e/c/ | 
[V:2] [G,G,,][CG,] [CC,][ECG,] | 
[V:1] A/^G/A/c/ e/d/c/A/ & z2F^F | 
[V:2] [F,F,,][FCA,] [F,F,,][^D,^D,,] | 
[V:1] G/c/e/[f/^c/G/]- [f/c/G/]^c/[ecG] | 
[V:2] [E,E,,][ECG,] [A,,A,,,][E^CA,] | 
[V:1] ^F/A/=c/[e/B/=F/]- [e/B/F/]B/[dBF] |[1 
[V:2] [D,D,,][A,A,,] [G,G,,][G,,G,,,] | 
[V:1] [c3G3E3][fBG] :|][2 
[V:2] [C,C,,]!accent![G,G,,] !accent![E,E,,]!accent![D,D,,] :|]  
[V:1] [c3G3E3]A/^F/ ]|: 
[V:2] [C,C,,]!accent![G,G,,] !accent![E,E,,]!accent![_E,_E,,] ]|:  
[V:1] G/A/B/c/ d/e/f | 
[V:2] [D,D,,][FB,G,] [G,,G,,,][FB,G,] | 
[V:1] [fA][f/B/][f/A/]-[f2A2] | 
[V:2] [D,D,,][FB,G,] [D,D,,][^D,^D,,] | 
[V:1] G/A/B/c/ d/^d/e | 
[V:2] [E,E,,][ECG,] [G,,G,,,][ECG,] | 
[V:1] [eG][e/A/][e/G/]-[e2G2] | 
[V:2] [C,C,,][ECG,] [C,C,,][^C,^C,,] | 
[V:1] [bfB][^a/^A/][b/f/B/]- [b/f/B/][a/A/][bfB] | 
[V:2] [D,D,,][FB,G,] [G,,G,,,][FB,G,] | 
[V:1] a/f/d/B/A2 | 
[V:2] [B,,B,,,][FB,G,] [G,,G,,,][FB,G,] | 
[V:1] [aeA][^g/^G/][a/e/A/]- [a/e/A/][g/G/][aeA] | 
[V:2] [C,C,,][ECG,] [G,,G,,,][ECG,] | 
[V:1] g/e/c/A/ G/c/B/A/ | 
[V:2] [C,C,,][ECG,] [E,E,,][ECG,] | 
[V:1] G/A/B/c/ d/e/f | 
[V:2] [D,D,,][FB,G,] [G,,G,,,][FB,G,] | 
[V:1] [fA][f/B/][f/A/]-[f2A2] | 
[V:2] [D,D,,][FB,G,] [D,D,,][^D,^D,,] | 
[V:1] G/A/B/c/ d/^d/e | 
[V:2] [E,E,,][ECG,] [G,,G,,,][ECG,] | 
[V:1] [eG][e/A/][e/G/]- [e/G/]c/B/_B/ | 
[V:2] [C,C,,][ECG,] [E,E,,][ECG,] | 
[V:1] A/^G/A/c/ e/d/c/A/ & z2F^F | 
[V:2] [F,F,,][FCA,] [F,F,,][^D,^D,,] | 
[V:1] G/c/e/[f/^c/G/]- [f/c/G/]c/[ecG] | 
[V:2] [E,E,,][ECG,] [A,,A,,,][E^CA,] | 
[V:1] ^F/A/=c/[e/B/=F/]- [e/B/F/]B/[dBF] |[1 
[V:2] [D,D,,][A,A,,] [G,G,,][G,,G,,,] | 
[V:1] [c3G3E3]A/^F/ :|][2 
[V:2] [C,C,,]!accent![G,G,,] !accent![E,E,,]!accent![_E,_E,,] :|]  
[V:1] [c2G2E2][c'gec] z ]|: 
[V:2] [C,C,,]G,,C,, z ]|:  
[V:1]  [K:F] c/A/F/G/ A/[fd][e/c/] | 
[V:2]  [K:F] F,[CA,] C,[CA,] | 
[V:1] [dB][c/A/][BG]<- [BG]B/- | 
[V:2] G,[CB,] C,[CB,] | 
[V:1] B/G/E/F/ G/[ec][d/B/] | 
[V:2] G,[CB,] C,[CB,] | 
[V:1] [cA][B/G/][AF]<- [AF]c/- | 
[V:2] F,[CA,] C,[CA,] | 
[V:1] c/A/F/G/ A/c^d/ | 
[V:2] F,2^F,2 & F,[CA,] ^F,[^DCA,] | 
[V:1] [eG][^d/^F/][e/G/]-[e2G2] | 
[V:2] G,[EC] G,,[ECG,] | 
[V:1] f/d/=B/G/- G/f/d/g/ | 
[V:2] D,[F=B,G,] G,,[FB,G,] | 
[V:1] c2[c'ec] z | 
[V:2] [EC] [G,G,,]!accent![C,C,,] z | 
[V:1] c/A/F/G/ A/[fd][e/c/] | 
[V:2] F,[CA,] C,[CA,] | 
[V:1] [dB][c/A/][BG]<- [BG]B/- | 
[V:2] G,[CB,] C,[CB,] | 
[V:1] B/G/E/F/ G/[ec][d/B/] | 
[V:2] G,[CB,] C,[CB,] | 
[V:1] [cA][B/G/][A/F/]-[A2F2] | 
[V:2] F,[CA,] _E,[CA,F,] | 
[V:1] ^F/A/c/[_e/F/]- [e/F/]d/[cF] | 
[V:2] D,2D,,2 & D,[DC^F,] D,,[DCF,] | 
[V:1] [B/G/]A/B/[g/B/G/]- [g/B/G/]d/[BG] | 
[V:2] G,,[DB,G,] B,,[DB,G,] | 
[V:1] [d/A/F/][cAF][A/F/] [c/E/]B/[GE] |[1 
[V:2] C,[CA,] C,[CB,] | 
[V:1] FF/E/ F/G/A/B/ :|][2 
[V:2] [CA,F,] zz2 :|]  
[V:1] F2[fAF] || 
[V:2] [CA,F,] C,F,, ||  
[V:1]  [K:C] G [I:setbarnb 56]||  
[V:2]  [K:C] G, ||  
[V:1] e3G | 
[V:2] C3G, | 
[V:1] g3G | 
[V:2] E3G, | 
[V:1] g/^f/g/=f/- f/e/d | 
[V:2] [FB,G,][FB,G,] [FB,G,][FB,G,] | 
[V:1] c zz2 ]|:  
[V:2] [EC] !accent![G,,G,,,]!accent![A,,A,,,]!accent![B,,B,,,] ]|:  
[V:1] [e/c/G/][^d/c/^F/][e/c/G/][a/e/c/A/]- [a/e/c/A/]g/e/c/ | 
[V:2] [C,C,,][ECG,] [E,E,,][ECG,] | 
[V:1] de/c/- c/c/B/_B/ & [BF]>[GE]- [GE] z | 
[V:2] [G,,G,,,][FB,G,] [C,C,,][ECG,] | 
[V:1] A/^G/A/c/ e/d/c/A/ & z2FF | 
[V:2] [F,F,,][FCA,] [A,A,,][_A,_A,,] | 
[V:1] [cE][A/E/][G/E/]- [G/E/]g/e/c/ | 
[V:2] [G,G,,][CG,] [C,C,,][ECG,] | 
[V:1] A/^G/A/c/ e/d/c/A/ & z2FF | 
[V:2] [F,F,,][FCA,] [A,A,,][_A,_A,,] | 
[V:1] [e/G/E/][^d/^F/^D/][e/G/E/][a/e/c/A/]- [a/e/c/A/]e/c/A/ | 
[V:2] [G,G,,][CG,] [E,E,,][_E,_E,,] | 
[V:1] A/^A/B/[a/f/B/]- [afB][gfB] | 
[V:2] [D,D,,][FB,G,] [G,,G,,,][FB,G,] | 
[V:1] [e'bf][d'bf] [d'ge][c'ge] | 
[V:2] [G,,G,,,][FB,G,] [C,C,,][ECG,] | 
[V:1] [e/c/G/][^d/c/^F/][e/c/G/][a/e/c/A/]- [a/e/c/A/]g/e/c/ | 
[V:2] [C,C,,][ECG,] [E,E,,][ECG,] | 
[V:1] de/c/- c/c/B/_B/ & [BF]>[GE]- [GE] z | 
[V:2] [G,,G,,,][FB,G,] [C,C,,][ECG,] | 
[V:1] A/^G/A/c/ e/d/c/A/ & z2FF | 
[V:2] [F,F,,][FCA,] [A,A,,][_A,_A,,] | 
[V:1] [cE][A/E/][G/E/]- [G/E/]g/e/c/ | 
[V:2] [G,G,,][CG,] [C,C,,][ECG,] | 
[V:1] A/^G/A/c/ e/d/c/A/ & z2F^F | 
[V:2] [F,F,,][FCA,] [F,F,,][^D,^D,,] | 
[V:1] G/c/e/[f/^c/G/]- [f/c/G/]^c/[ecG] | 
[V:2] [E,E,,][ECG,] [A,,A,,,][E^CA,] | 
[V:1] ^F/A/=c/[e/B/=F/]- [e/B/F/]B/[dBF] |[1 
[V:2] [D,D,,][A,A,,] [G,G,,][G,,G,,,] | 
[V:1] [c3G3E3][fBG] :|][2 
[V:2] [C,C,,]!accent![G,G,,] !accent![E,E,,]!accent![D,D,,] :|]  
[V:1] [c2G2E2]!accent![c'gec] z |]  
[V:2] [C,C,,]G,,C,, z |]  


